app/assets/images/icons/active/folder.svg

<svg width="32" height="232" viewBox="0 0 32 232" xmlns="http://www.w3.org/2000/svg" xmlns:sketch="http://www.bohemiancoding.com/sketch/ns"><title>folder</title><g sketch:type="MSPage" fill="none"><path d="M8.581 132.459c-1.062 0-1.922.846-1.922 1.885v10.818c-.906-.15-1.6-.92-1.6-1.854v-10.199c0-1.043.86-1.888 1.922-1.888h7.911c.673-.036 10.566 0 10.566 0 .174 0 .336.033.494.072-.185-.85-.953-1.485-1.874-1.485h-.286c-.649-.035-1.143-.23-1.178-.869v-.066c0-1.041-.861-1.414-1.92-1.414h-4.074c-1.057 0-1.915.371-1.92 1.404-.002.705-.516.908-1.19.945h-8.089c-1.061 0-1.921.844-1.921 1.885v11.768c0 .486.19.922.497 1.256.101.111.189.187.285.257l2.759 2.254c.153.207.352.379.581.51.309.168.621.262.959.262h17.996c1.061 0 1.923-.846 1.923-1.887v-11.769c0-1.039-.862-1.885-1.923-1.885h-17.996zm0 0" fill="#206FAC" sketch:type="MSShapeGroup"/><path d="M8.581 92.459c-1.062 0-1.922.846-1.922 1.885v10.818c-.906-.15-1.6-.92-1.6-1.854v-10.199c0-1.043.86-1.888 1.922-1.888h7.911c.673-.036 10.566 0 10.566 0 .174 0 .336.033.494.072-.185-.85-.953-1.485-1.874-1.485h-.286c-.649-.035-1.143-.23-1.178-.869v-.066c0-1.041-.861-1.414-1.92-1.414h-4.074c-1.057 0-1.915.371-1.92 1.404-.002.705-.516.908-1.19.945h-8.089c-1.061 0-1.921.844-1.921 1.885v11.768c0 .486.19.922.497 1.256.101.111.189.187.285.257l2.759 2.254c.153.207.352.379.581.51.309.168.621.262.959.262h17.996c1.061 0 1.923-.846 1.923-1.887v-11.769c0-1.039-.862-1.885-1.923-1.885h-17.996zm0 0" fill="#fff" sketch:type="MSShapeGroup"/><path d="M8.581 52.459c-1.062 0-1.922.846-1.922 1.885v10.818c-.906-.15-1.6-.92-1.6-1.854v-10.199c0-1.043.86-1.888 1.922-1.888h7.911c.673-.036 10.566 0 10.566 0 .174 0 .336.033.494.072-.185-.85-.953-1.485-1.874-1.485h-.286c-.649-.035-1.143-.23-1.178-.869v-.066c0-1.041-.861-1.414-1.92-1.414h-4.074c-1.057 0-1.915.371-1.92 1.404-.002.705-.516.908-1.19.945h-8.089c-1.061 0-1.921.844-1.921 1.885v11.768c0 .486.19.922.497 1.256.101.111.189.187.285.257l2.759 2.254c.153.207.352.379.581.51.309.168.621.262.959.262h17.996c1.061 0 1.923-.846 1.923-1.887v-11.769c0-1.039-.862-1.885-1.923-1.885h-17.996zm0 0" fill="#67737B" sketch:type="MSShapeGroup"/><path d="M8.581 12.459c-1.062 0-1.922.846-1.922 1.885v10.818c-.906-.15-1.6-.92-1.6-1.854v-10.199c0-1.043.86-1.888 1.922-1.888h7.911c.673-.036 10.566 0 10.566 0 .174 0 .336.033.494.072-.185-.85-.953-1.485-1.874-1.485h-.286c-.649-.035-1.143-.23-1.178-.869v-.066c0-1.041-.861-1.414-1.92-1.414h-4.074c-1.057 0-1.915.371-1.92 1.404-.002.705-.516.908-1.19.945h-8.089c-1.061 0-1.921.844-1.921 1.885v11.768c0 .486.19.922.497 1.256.101.111.189.187.285.257l2.759 2.254c.153.207.352.379.581.51.309.168.621.262.959.262h17.996c1.061 0 1.923-.846 1.923-1.887v-11.769c0-1.039-.862-1.885-1.923-1.885h-17.996zm0 0" fill="#3A434E" sketch:type="MSShapeGroup"/></g></svg>

<?xml version="1.0" encoding="UTF-8" standalone="no"?>
<svg width="32px" height="232px" viewBox="0 0 32 232" version="1.1" xmlns="http://www.w3.org/2000/svg" xmlns:xlink="http://www.w3.org/1999/xlink" xmlns:sketch="http://www.bohemiancoding.com/sketch/ns">
    <title>folder</title>
    <description>Created with Sketch (http://www.bohemiancoding.com/sketch)</description>
    <defs></defs>
    <g id="Categories" stroke="none" stroke-width="1" fill="none" fill-rule="evenodd" sketch:type="MSPage">
        <path d="M8.581,132.459 C7.519,132.459 6.659,133.305 6.659,134.344 L6.659,145.162 C5.753,145.012 5.059,144.242 5.059,143.308 L5.059,133.109 C5.059,132.066 5.919,131.221 6.981,131.221 L14.892,131.221 C15.565,131.185 25.458,131.221 25.458,131.221 C25.632,131.221 25.794,131.254 25.952,131.293 C25.767,130.443 24.999,129.808 24.078,129.808 L23.792,129.808 C23.143,129.773 22.649,129.578 22.614,128.939 L22.614,128.873 C22.614,127.832 21.753,127.459 20.694,127.459 L16.62,127.459 C15.563,127.459 14.705,127.83 14.7,128.863 C14.698,129.568 14.184,129.771 13.51,129.808 L5.421,129.808 C4.36,129.808 3.5,130.652 3.5,131.693 L3.5,143.461 C3.5,143.947 3.69,144.383 3.997,144.717 C4.098,144.828 4.186,144.904 4.282,144.974 L7.041,147.228 C7.194,147.435 7.393,147.607 7.622,147.738 C7.931,147.906 8.243,148 8.581,148 L26.577,148 C27.638,148 28.5,147.154 28.5,146.113 L28.5,134.344 C28.5,133.305 27.638,132.459 26.577,132.459 L8.581,132.459 Z M8.581,132.459" id="folder--lp-blue" fill="#206FAC" sketch:type="MSShapeGroup"></path>
        <path d="M8.581,92.459 C7.519,92.459 6.659,93.305 6.659,94.344 L6.659,105.162 C5.753,105.012 5.059,104.242 5.059,103.308 L5.059,93.109 C5.059,92.066 5.919,91.221 6.981,91.221 L14.892,91.221 C15.565,91.185 25.458,91.221 25.458,91.221 C25.632,91.221 25.794,91.254 25.952,91.293 C25.767,90.443 24.999,89.808 24.078,89.808 L23.792,89.808 C23.143,89.773 22.649,89.578 22.614,88.939 L22.614,88.873 C22.614,87.832 21.753,87.459 20.694,87.459 L16.62,87.459 C15.563,87.459 14.705,87.83 14.7,88.863 C14.698,89.568 14.184,89.771 13.51,89.808 L5.421,89.808 C4.36,89.808 3.5,90.652 3.5,91.693 L3.5,103.461 C3.5,103.947 3.69,104.383 3.997,104.717 C4.098,104.828 4.186,104.904 4.282,104.974 L7.041,107.228 C7.194,107.435 7.393,107.607 7.622,107.738 C7.931,107.906 8.243,108 8.581,108 L26.577,108 C27.638,108 28.5,107.154 28.5,106.113 L28.5,94.344 C28.5,93.305 27.638,92.459 26.577,92.459 L8.581,92.459 Z M8.581,92.459" id="folder--white" fill="#FFFFFF" sketch:type="MSShapeGroup"></path>
        <path d="M8.581,52.459 C7.519,52.459 6.659,53.305 6.659,54.344 L6.659,65.162 C5.753,65.012 5.059,64.242 5.059,63.308 L5.059,53.109 C5.059,52.066 5.919,51.221 6.981,51.221 L14.892,51.221 C15.565,51.185 25.458,51.221 25.458,51.221 C25.632,51.221 25.794,51.254 25.952,51.293 C25.767,50.443 24.999,49.808 24.078,49.808 L23.792,49.808 C23.143,49.773 22.649,49.578 22.614,48.939 L22.614,48.873 C22.614,47.832 21.753,47.459 20.694,47.459 L16.62,47.459 C15.563,47.459 14.705,47.83 14.7,48.863 C14.698,49.568 14.184,49.771 13.51,49.808 L5.421,49.808 C4.36,49.808 3.5,50.652 3.5,51.693 L3.5,63.461 C3.5,63.947 3.69,64.383 3.997,64.717 C4.098,64.828 4.186,64.904 4.282,64.974 L7.041,67.228 C7.194,67.435 7.393,67.607 7.622,67.738 C7.931,67.906 8.243,68 8.581,68 L26.577,68 C27.638,68 28.5,67.154 28.5,66.113 L28.5,54.344 C28.5,53.305 27.638,52.459 26.577,52.459 L8.581,52.459 Z M8.581,52.459" id="folder--body-grey" fill="#67737B" sketch:type="MSShapeGroup"></path>
        <path d="M8.581,12.459 C7.519,12.459 6.659,13.305 6.659,14.344 L6.659,25.162 C5.753,25.012 5.059,24.242 5.059,23.308 L5.059,13.109 C5.059,12.066 5.919,11.221 6.981,11.221 L14.892,11.221 C15.565,11.185 25.458,11.221 25.458,11.221 C25.632,11.221 25.794,11.254 25.952,11.293 C25.767,10.443 24.999,9.808 24.078,9.808 L23.792,9.808 C23.143,9.773 22.649,9.578 22.614,8.939 L22.614,8.873 C22.614,7.832 21.753,7.459 20.694,7.459 L16.62,7.459 C15.563,7.459 14.705,7.83 14.7,8.863 C14.698,9.568 14.184,9.771 13.51,9.808 L5.421,9.808 C4.36,9.808 3.5,10.652 3.5,11.693 L3.5,23.461 C3.5,23.947 3.69,24.383 3.997,24.717 C4.098,24.828 4.186,24.904 4.282,24.974 L7.041,27.228 C7.194,27.435 7.393,27.607 7.622,27.738 C7.931,27.906 8.243,28 8.581,28 L26.577,28 C27.638,28 28.5,27.154 28.5,26.113 L28.5,14.344 C28.5,13.305 27.638,12.459 26.577,12.459 L8.581,12.459 Z M8.581,12.459" id="folder--title-grey" fill="#3A434E" sketch:type="MSShapeGroup"></path>
    </g>
</svg>
